public/svgs/github-fill.svg

<svg xmlns="http://www.w3.org/2000/svg" viewBox="0 0 24 24" fill="rgba(255,255,255,1)"><path d="M12.001 2C6.47598 2 2.00098 6.475 2.00098 12C2.00098 16.425 4.86348 20.1625 8.83848 21.4875C9.33848 21.575 9.52598 21.275 9.52598 21.0125C9.52598 20.775 9.51348 19.9875 9.51348 19.15C7.00098 19.6125 6.35098 18.5375 6.15098 17.975C6.03848 17.6875 5.55098 16.8 5.12598 16.5625C4.77598 16.375 4.27598 15.9125 5.11348 15.9C5.90098 15.8875 6.46348 16.625 6.65098 16.925C7.55098 18.4375 8.98848 18.0125 9.56348 17.75C9.65098 17.1 9.91348 16.6625 10.201 16.4125C7.97598 16.1625 5.65098 15.3 5.65098 11.475C5.65098 10.3875 6.03848 9.4875 6.67598 8.7875C6.57598 8.5375 6.22598 7.5125 6.77598 6.1375C6.77598 6.1375 7.61348 5.875 9.52598 7.1625C10.326 6.9375 11.176 6.825 12.026 6.825C12.876 6.825 13.726 6.9375 14.526 7.1625C16.4385 5.8625 17.276 6.1375 17.276 6.1375C17.826 7.5125 17.476 8.5375 17.376 8.7875C18.0135 9.4875 18.401 10.375 18.401 11.475C18.401 15.3125 16.0635 16.1625 13.8385 16.4125C14.201 16.725 14.5135 17.325 14.5135 18.2625C14.5135 19.6 14.501 20.675 14.501 21.0125C14.501 21.275 14.6885 21.5875 15.1885 21.4875C19.259 20.1133 21.9999 16.2963 22.001 12C22.001 6.475 17.526 2 12.001 2Z"></path></svg>

<svg xmlns="http://www.w3.org/2000/svg" viewBox="0 0 24 24" width="24" height="24"><path fill="none" d="M0 0h24v24H0z"/><path d="M12 2C6.475 2 2 6.475 2 12a9.994 9.994 0 0 0 6.838 9.488c.5.087.687-.213.687-.476 0-.237-.013-1.024-.013-1.862-2.512.463-3.162-.612-3.362-1.175-.113-.288-.6-1.175-1.025-1.413-.35-.187-.85-.65-.013-.662.788-.013 1.35.725 1.538 1.025.9 1.512 2.338 1.087 2.912.825.088-.65.35-1.087.638-1.337-2.225-.25-4.55-1.113-4.55-4.938 0-1.088.387-1.987 1.025-2.688-.1-.25-.45-1.275.1-2.65 0 0 .837-.262 2.75 1.026a9.28 9.28 0 0 1 2.5-.338c.85 0 1.7.112 2.5.337 1.912-1.3 2.75-1.024 2.75-1.024.55 1.375.2 2.4.1 2.65.637.7 1.025 1.587 1.025 2.687 0 3.838-2.337 4.688-4.562 4.938.362.312.675.912.675 1.85 0 1.337-.013 2.412-.013 2.75 0 .262.188.574.688.474A10.016 10.016 0 0 0 22 12c0-5.525-4.475-10-10-10z"/></svg>
